X:770
T:In Memory of Herbie MacLeod
C:Jerry Holland
S:Jerry Holland recording
Z:Nigel Gatherer
M:3/4
L:1/8
K:A
EAB | c3  d c2  | B3  c/B/AB | c a3 (3gag | f3 
fec | e2 A2 B>A | c e3 (3cec | B6         | B3
EAB | c3  d c2  | B3  c/B/AB | c a3 (3gag | f3 
fec | e2 A2 c2  | c3  d/c/BA | A6         | A3 :|
ag  | f3  fed   | f a3 (3faf | e3 d  c2   | c3 
BAB | c3  B A2  | c a3 (3cec | B6         | B4 
ag  | f3  fed   | f a3 (3faf | e3 d  c2   | c3 
BAB | c  a3 c2  | c4      B2 | A6         | A4
ag  | f3  fed   | f a3 (3faf | e3 d  c2   | c3 
BAB | c3  B A2  | c a3 (3cec | B6         | B3
EAB | c3  d c2  | B3  c/B/AB | c a3 (3gag | f3 
fec | e2 A2 c2  | c3  d/c/BA | A6         | A3 |]
<end>
<start>
